communes/195.svg

<?xml version="1.0" encoding="UTF-8" standalone="no"?>
<svg
   xmlns:dc="http://purl.org/dc/elements/1.1/"
   xmlns:cc="http://creativecommons.org/ns#"
   xmlns:rdf="http://www.w3.org/1999/02/22-rdf-syntax-ns#"
   xmlns:svg="http://www.w3.org/2000/svg"
   xmlns="http://www.w3.org/2000/svg"
   xmlns:sodipodi="http://sodipodi.sourceforge.net/DTD/sodipodi-0.dtd"
   xmlns:inkscape="http://www.inkscape.org/namespaces/inkscape"
   version="1.0"
   width="238.76875"
   height="279.68045"
   id="svg2780"
   sodipodi:docname="195.svg">
  <metadata
     id="metadata21">
    <rdf:RDF>
      <cc:Work
         rdf:about="">
        <dc:format>image/svg+xml</dc:format>
        <dc:type
           rdf:resource="http://purl.org/dc/dcmitype/StillImage" />
      </cc:Work>
    </rdf:RDF>
  </metadata>
  <sodipodi:namedview
     pagecolor="#ffffff"
     bordercolor="#666666"
     borderopacity="1"
     objecttolerance="10"
     gridtolerance="10"
     guidetolerance="10"
     inkscape:pageopacity="0"
     inkscape:pageshadow="2"
     inkscape:window-width="640"
     inkscape:window-height="480"
     id="namedview19" />
  <defs
     id="defs2782" />
  <g
     transform="translate(-4.4781203,-791.67431)"
     id="layer1">
    <path
       d="M 5.4781202,792.67431 L 9.7830018,973.48945 C 12.85791,1102.6432 234.86708,1102.6432 237.942,973.48945 L 242.24688,792.67431 L 5.4781202,792.67431 z"
       id="path3282"
       style="fill:#000000;fill-opacity:1;fill-rule:evenodd;stroke:#000000;stroke-width:1.99999988;stroke-linecap:butt;stroke-miterlimit:4;stroke-dashoffset:0;stroke-opacity:1" />
    <path
       d="M 8.3125,108.03125 L 9.78125,169.15625 C 12.856158,298.31001 234.86258,298.31 237.9375,169.15625 L 239.40625,108.03125 L 204.5625,108.03125 L 204.55364,143.48208 L 176.86614,143.48208 L 176.875,108.03125 L 137.71875,108.03125 L 137.70989,143.48208 L 110.02239,143.48208 L 110.03125,108.03125 L 70.875,108.03125 L 70.866142,143.48208 L 43.178642,143.48208 L 43.1875,108.03125 L 8.3125,108.03125 z"
       transform="translate(0,804.33069)"
       id="path4608"
       style="fill:#ffffff;fill-opacity:1;fill-rule:evenodd;stroke:none;stroke-width:1px;stroke-linecap:butt;stroke-linejoin:miter;stroke-opacity:1" />
    <path
       d="M 8.463989,948.17897 L 238.5458,948.17137"
       id="path4602"
       style="fill:none;fill-opacity:0.75;fill-rule:evenodd;stroke:#000000;stroke-width:1px;stroke-linecap:butt;stroke-linejoin:miter;stroke-opacity:1" />
    <path
       d="M 10.579986,987.58938 L 237.09885,987.58938"
       id="path4604"
       style="fill:none;fill-opacity:0.75;fill-rule:evenodd;stroke:#000000;stroke-width:1px;stroke-linecap:butt;stroke-linejoin:miter;stroke-opacity:1" />
    <path
       d="M 26.626299,1026.9998 L 220.8762,1026.9998"
       id="path4606"
       style="fill:none;fill-opacity:0.75;fill-rule:evenodd;stroke:#000000;stroke-width:1px;stroke-linecap:butt;stroke-linejoin:miter;stroke-opacity:1" />
    <path
       d="M 25.052112,948.55672 L 25.052112,987.1048"
       id="path5139"
       style="fill:none;fill-opacity:0.75;fill-rule:evenodd;stroke:#000000;stroke-width:0.99999988px;stroke-linecap:butt;stroke-linejoin:miter;stroke-opacity:1" />
    <path
       d="M 91.896819,948.55672 L 91.896819,987.1048"
       id="path5141"
       style="fill:none;fill-opacity:0.75;fill-rule:evenodd;stroke:#000000;stroke-width:0.99999988px;stroke-linecap:butt;stroke-linejoin:miter;stroke-opacity:1" />
    <path
       d="M 158.74152,948.55672 L 158.74152,987.1048"
       id="path5143"
       style="fill:none;fill-opacity:0.75;fill-rule:evenodd;stroke:#000000;stroke-width:0.99999988px;stroke-linecap:butt;stroke-linejoin:miter;stroke-opacity:1" />
    <path
       d="M 225.58622,948.55672 L 225.58622,987.1048"
       id="path5145"
       style="fill:none;fill-opacity:0.75;fill-rule:evenodd;stroke:#000000;stroke-width:0.99999988px;stroke-linecap:butt;stroke-linejoin:miter;stroke-opacity:1" />
    <path
       d="M 58.474464,987.99295 L 58.474464,1026.6872"
       id="path5147"
       style="fill:none;fill-opacity:0.75;fill-rule:evenodd;stroke:#000000;stroke-width:0.99999994px;stroke-linecap:butt;stroke-linejoin:miter;stroke-opacity:1" />
    <path
       d="M 125.31916,987.99295 L 125.31916,1026.6872"
       id="path5149"
       style="fill:none;fill-opacity:0.75;fill-rule:evenodd;stroke:#000000;stroke-width:0.99999994px;stroke-linecap:butt;stroke-linejoin:miter;stroke-opacity:1" />
    <path
       d="M 192.16386,987.99295 L 192.16386,1026.6872"
       id="path5151"
       style="fill:none;fill-opacity:0.75;fill-rule:evenodd;stroke:#000000;stroke-width:0.99999994px;stroke-linecap:butt;stroke-linejoin:miter;stroke-opacity:1" />
    <path
       d="M 91.896815,1027.3688 L 91.940769,1066.8074"
       id="path5165"
       style="fill:none;fill-opacity:0.75;fill-rule:evenodd;stroke:#000000;stroke-width:1px;stroke-linecap:butt;stroke-linejoin:miter;stroke-opacity:1" />
    <path
       d="M 158.74151,1027.3688 L 158.69577,1066.1108"
       id="path5167"
       style="fill:none;fill-opacity:0.75;fill-rule:evenodd;stroke:#000000;stroke-width:1px;stroke-linecap:butt;stroke-linejoin:miter;stroke-opacity:1" />
  </g>
</svg>

<?xml version="1.0" encoding="UTF-8"?>
<svg version="1.0" viewBox="0 0 238.77 279.68" xmlns="http://www.w3.org/2000/svg" xmlns:cc="http://creativecommons.org/ns#" xmlns:dc="http://purl.org/dc/elements/1.1/" xmlns:rdf="http://www.w3.org/1999/02/22-rdf-syntax-ns#">
<metadata>
<rdf:RDF>
<cc:Work rdf:about="">
<dc:format>image/svg+xml</dc:format>
<dc:type rdf:resource="http://purl.org/dc/dcmitype/StillImage"/>
</cc:Work>
</rdf:RDF>
</metadata>
<g transform="translate(-4.4781 -791.67)">
<path d="m5.4781 792.67 4.3049 180.82c3.0749 129.15 225.08 129.15 228.16 0l4.3049-180.82h-236.77z" fill-rule="evenodd" stroke="#000" stroke-width="2"/>
<path transform="translate(0 804.33)" d="m8.3125 108.03 1.4688 61.125c3.0749 129.15 225.08 129.15 228.16 0l1.4688-61.125h-34.844l-0.00886 35.451h-27.688l0.00886-35.451h-39.156l-0.00886 35.451h-27.688l0.00886-35.451h-39.156l-0.008858 35.451h-27.688l0.008858-35.451h-34.875z" fill="#fff" fill-rule="evenodd"/>
<path d="m8.464 948.18 230.08-0.0076" fill="none" stroke="#000" stroke-width="1px"/>
<path d="m10.58 987.59h226.52" fill="none" stroke="#000" stroke-width="1px"/>
<path d="m26.626 1027h194.25" fill="none" stroke="#000" stroke-width="1px"/>
<path d="m25.052 948.56v38.548" fill="none" stroke="#000" stroke-width="1px"/>
<path d="m91.897 948.56v38.548" fill="none" stroke="#000" stroke-width="1px"/>
<path d="m158.74 948.56v38.548" fill="none" stroke="#000" stroke-width="1px"/>
<path d="m225.59 948.56v38.548" fill="none" stroke="#000" stroke-width="1px"/>
<path d="m58.474 987.99v38.694" fill="none" stroke="#000" stroke-width="1px"/>
<path d="m125.32 987.99v38.694" fill="none" stroke="#000" stroke-width="1px"/>
<path d="m192.16 987.99v38.694" fill="none" stroke="#000" stroke-width="1px"/>
<path d="m91.897 1027.4 0.043954 39.439" fill="none" stroke="#000" stroke-width="1px"/>
<path d="m158.74 1027.4-0.04574 38.742" fill="none" stroke="#000" stroke-width="1px"/>
</g>
</svg>
